X:15
T:Boil the breakfast early
R:Reel
S:Various
D:Chieftains- Boil the breakfast early
Z:Transcription, arrangement, chords:Mike Long
M:C|
L:1/8
K:G
BA[|\
"G"G2BG "D"ADD2|"G"GBB2 "C"c2BA|"G"G2BG "D"ADD2|\
"C"GEE2 "D"c2BA|"G"G2BG "D"ADD2|"G"GBB2 "C"c2Bc|
"G"dBcA "D"BGAF|"C"GEE2 c2Bc|]"D"d2fd edB^c|\
"D"d2ef "G"g2fe|"D"d2fd edBA|"C"GEE2 c2Bc|
"D"d2fd edB^c|"D"d2ef "G"g2fg|"D"afge fded|\
"C"dcAB c2Bc|]"D"dA ~A2 dAFA|dA ~A2 defe|
dA ~A2 dAFA|"C"GEE2 c2Bc|"D"dA ~A2 dAFA|\
d2{e}d^c defe|dBcA BGAF|"C"GEE2 "(D)"c2BA|]
